svgs/sharp-solid/laptop.svg

<svg xmlns="http://www.w3.org/2000/svg" viewBox="0 0 640 512"><!--! Font Awesome Pro 6.6.0 by @fontawesome - https://fontawesome.com License - https://fontawesome.com/license (Commercial License) Copyright 2024 Fonticons, Inc. --><path d="M96 32L64 32l0 32 0 288 64 0 0-256 384 0 0 256 64 0 0-288 0-32-32 0L96 32zM0 384l0 48 48 48 544 0 48-48 0-48L0 384z"/></svg>

<svg xmlns="http://www.w3.org/2000/svg" viewBox="0 0 640 512"><!--! Font Awesome Pro 6.4.2 by @fontawesome - https://fontawesome.com License - https://fontawesome.com/license (Commercial License) Copyright 2023 Fonticons, Inc. --><path d="M96 32H64V64 352h64V96H512V352h64V64 32H544 96zM0 384v48l48 48H592l48-48V384H0z"/></svg>
